!!!!SEGMENT: pl-sa--573-a-ix-53--002_anonim--polonaise.krn
!!!cenid: 18xx:603
!!!COM: Anonim
!!!COM-rismid: pe30004985
!!!CDT:
!!!CNT:
!!!OTL: Polonaise
!!!PDT:
!!!AGN: Secular; Polonaise
!!!SMS-siglum: PL-SA
!!!SMS-shelfmark: 573/A IX 53
!!!SMS-shelfwork: 002 W
!!!SMS-variant:
!!!SMS-altvar:
!!!NIFC-rismid: 1001077292
!!!system-decoration: {(s1,s2)}
!!!key:
**kern	**kern
*part2	*part1
*staff2	*staff1
*Iempty	*Ipiano
*	*I"Piano
*	*I'Pno.
*clefF4	*clefG2
*k[]	*k[]
*C:	*C:
*M3/4	*M3/4
*>[A,A,B,B,C,C,D,D,C,C,D,D]	*>[A,A,B,B,C,C,D,D,C,C,D,D]
=1	=1
*>A	*>A
*	*2\right
*clefG2	*
!	!LO:TX:a:Bi:t=Polonaise:rj
4r	8g/
.	4cc\
8g 8e 8c/	.
*rep	*
8g 8e 8c/	16ee\LL
.	16gg\JJ
8g 8e 8c/	16ff\LL
.	16ee\
8g 8e 8c/	16dd\
.	16cc\JJ
*Xrep	*
=2	=2
4r	16cc#X\LL
.	16dd\
.	16ee\
.	16dd\JJ
8g 8f 8d/	4.dd\
*rep	*
8g 8f 8d/	.
8g 8f 8d/	.
8g 8f 8d/	8ccn\
*Xrep	*
=3	=3
4r	16b\LL
.	16cc\
.	16dd\
.	16ee\JJ
8g 8d 8B/	16dd\LL
.	16ee\
*rep	*
8g 8d 8B/	16ff\
.	16gg\JJ
8g 8d 8B/	16bb-X\LL
.	16aa\
8g 8d 8B/	16gg\
.	16ff\JJ
*Xrep	*
=4	=4
4c/	16gg\LL
.	16ff\
.	16ee\
.	16ff\JJ
8r	8ee\L
*clefF4	*
8E\L	8g\
8F\	8a\
8D\J	8b\J
=5	=5
!LO:TX:a:t=P:problem=znak początku repetycji	!LO:TX:a:t=P:problem=znak początku repetycji
16C\LL	8cc\
16G\	.
16E\	4c/
16G\JJ	.
*rep	*
16C\LL	.
16G\	.
16E\	16e/LL
16G\JJ	16g/JJ
*Xrep	*
*rep	*
16C\LL	16cc\LL
16G\	16g\
16E\	16cc\
16G\JJ	16ee\JJ
*Xrep	*
=6	=6
16BB\LL	16gg\LL
16G\	16ff\
16D\	16ee\
16G\JJ	16dd\JJ
*rep	*
16BB\LL	16cc#X\LL
16G\	16dd\
16D\	16ee\
16G\JJ	16dd\JJ
*Xrep	*
*rep	*
16BB\LL	16ccn\LL
16G\	16b\
16D\	16a\
16G\JJ	16g\JJ
*Xrep	*
!LO:TX:a:t=P:problem=znak końca repetycji	!LO:TX:a:t=P:problem=znak końca repetycji
=7	=7
!LO:TX:a:t=P:problem=powtórzenie taktów oznaczone znakami repetycji	!LO:TX:a:t=P:problem=powtórzenie taktów oznaczone znakami repetycji
16C\LL	8cc\
16G\	.
16E\	4c/
16G\JJ	.
*rep	*
16C\LL	.
16G\	.
16E\	16e/LL
16G\JJ	16g/JJ
*Xrep	*
*rep	*
16C\LL	16cc\LL
16G\	16g\
16E\	16cc\
16G\JJ	16ee\JJ
*Xrep	*
=8	=8
16BB\LL	16gg\LL
16G\	16ff\
16D\	16ee\
16G\JJ	16dd\JJ
*rep	*
16BB\LL	16cc#X\LL
16G\	16dd\
16D\	16ee\
16G\JJ	16dd\JJ
*Xrep	*
*rep	*
16BB\LL	16ccn\LL
16G\	16b\
16D\	16a\
16G\JJ	16g\JJ
*Xrep	*
=9	=9
4E 4C\	16cc\LL
.	8qdd/
.	32cc\L
.	32b\J
.	16cc\
.	16dd\JJ
4r	8.ee\L
.	16b\Jk
*tremolo	*
!LO:TX:a:t=P:problem=w źródle 2 kreski nad tremolo	!
8D 8BB\L	8.cc\L
8D 8BB\J	.
.	16g#X\Jk
*Xtremolo	*
!!LO:LB:g=original
=10	=10
4F\	16a\LL
.	16g#X\
.	16a\
.	16b\JJ
!LO:TX:a:t=P:problem=mixed beam	!
8F\L	8.ccL 8.a/
8FF/	.
.	16g#XJk 16e/
8F\J	8.aL 8.f/
8ryy	.
.	16eJk 16c#X/
=11	=11
8r	16f\LL
.	16a\
8G 8D 8BB\	16dd\
.	16cc\JJ
*rep	*
8G 8D 8BB\	16b\LL
.	16dd\
8G 8D 8BB\	16ff\
.	16ee\JJ
8G 8D 8BB\	16dd\LL
.	16ff\
8G 8D 8BB\	16aa\
.	16gg\JJ
*Xrep	*
=12	=12
4G 4D 4BB\	16gg\LL
.	16ff\
.	16ee\
.	16dd\JJ
.	8qqdd/
8r	2cc\
8G 8D 8BB\	.
4G 4E 4C\	.
=13:|!;>	=13:|!;>
*>B	*>B
!	!LO:TX:a:t=P:problem=mixed beam
16BB\LL	16gg\LL
16G\	16g/
16D\	16b/
16G\JJ	16dd/JJ
*rep	*
16BB\LL	8ggL 8b\
16G\	.
16D\	8ggJ 8b\
16G\JJ	.
*Xrep	*
*rep	*
16BB\LL	8bbL 8gg\
16G\	.
16D\	8bbJ 8gg\
16G\JJ	.
*Xrep	*
=14	=14
!LO:TX:a:t=P:problem=mixed beam	!
8GG/L	4ddd 4bb\
8G\J	.
4GG/	16dddLL 16bb\
.	16ccc 16aa\
.	16ccc 16aa\
.	16bbJJ 16gg\
4r	4bb 4gg\
=15	=15
8r	4.ddd 4.bb\
8G\	.
*tremolo	*
!LO:TX:a:t=P:problem=mixed beam	!
8GG/L	.
8G\	8ddd 8bb\
8GG/	8cccL 8aa\
8G\J	8bbJ 8gg\
*Xtremolo	*
=16	=16
16F#X\LL	8cccL 8aa\
16d\	.
16A\	32dd\LL
.	32ee\
16d\JJ	32ff#X\
.	32gg\JJJ
*rep	*
16F#\LL	8aaL 8ff#\
16d\	.
16A\	8aaJ 8ff#\
16d\JJ	.
*Xrep	*
16G\LL	8bbL 8gg\
16d\	.
16B\	8bbJ 8gg\
16d\JJ	.
=17	=17
!LO:TX:a:t=P:problem=mixed beam	!
8D/L	4ccc 4aa\
8d\J	.
4D\	16cccLL 16aa\
.	16bb 16gg\
.	16bb 16gg\
.	16aaJJ 16ff\
4r	4aa 4ff\
=18	=18
8r	4.ccc 4.aa\
8d\	.
*tremolo	*
!LO:TX:a:t=P:problem=mixed beam	!
8D/L	.
8d\	8ccc 8aa\
8D/	8bbL 8gg\
8d\J	8aaJ 8ff\
*Xtremolo	*
!!LO:LB:g=original
=19	=19
.	8qff#X/
16BB\LL	8gg\
16G\	.
16D\	4dd\
16G\JJ	.
*rep	*
16BB\LL	.
16G\	.
16D\	16bb\LL
16G\JJ	16aa\JJ
*Xrep	*
!LO:TX:a:t=P:problem=mixed beam	!
8C/L	16ff#X\LL
.	16ee\
8c\J	16ccc\
.	16aa\JJ
=20	=20
4d\	16bb\LL
.	16gg\
.	16ff#X\
.	16aa\JJ
.	8qaa/
8r	2gg\
8D\	.
4G\	.
=21:|!	=21:|!
*>C	*>C
*clefG2	*
!	!LO:TX:a:t=P:problem=w źródle po lewej stronie systemu (przed Trio) klamra
!	!LO:TX:a:Bi:t=Trio:rj
8r	16.gg\LL
.	32aa\JK
8g 8e/	8.gg\J
*rep	*
8g 8e/	.
.	16eee\LL
8g 8e/	16ddd\
.	16ccc\JJ
8g 8e/	16bb\LL
.	16ccc\
8g 8e/	16ddd\
.	16ccc\JJ
*Xrep	*
=22	=22
4r	16bb\LL
.	16aa\
.	16gg#X\
.	16aa\JJ
*tremolo	*
!LO:TX:a:t=P:problem=w źródle 4 kreski nad tremolo oznaczające tremolo 16-stkowe; w źródle ćwierćnuta ma tylko jedno przekreślenie	!
16a 16f 16c/LL	4.aa\
16a 16f 16c/	.
16a 16f 16c/	.
16a 16f 16c/JJ	.
*Xtremolo	*
4a 4f 4c/	.
.	16gg#\LL
.	16ff\JJ
=23	=23
*clefF4	*
16BB\LL	16eeLL 16cc\
16G\	16ddJ 16b\
16D\	8.ddJ 8.b\
16G\JJ	.
*rep	*
16BB\LL	.
16G\	16aa\LL
16D\	16gg\
16G\JJ	16ff\JJ
*Xrep	*
*rep	*
16BB\LL	16ee\LL
16G\	16dd\
16D\	16ff\
16G\JJ	16aa\JJ
*Xrep	*
=24	=24
8GL 8C\	16gg\LL
.	16ee\
8GJ 8BB\	16ff\
.	16dd\JJ
.	8qqdd/
8r	2cc\
8GG/	.
4C/	.
=25:|!|:;>	=25:|!|:;>
*>D	*>D
16BB\LL	8ff\L
16G\	.
16D\	32g\LL
.	32a\
16G\JJ	32b\
.	32cc\JJJ
*rep	*
16BB\LL	8dd\L
16G\	.
16D\	16dd\L
16G\JJ	16b\JJ
*Xrep	*
*rep	*
16BB\LL	8.ffL 8.dd\
16G\	.
16D\	.
16G\JJ	16ddJk 16b\
*Xrep	*
!!LO:LB:g=original
=26	=26
4C/	16eeLL 16cc\
.	16ff 16dd\
.	16ee 16cc\
.	16ffJJ 16dd\
8r	8ggL 8ee\
!LO:TX:a:t=P:problem=mixed beam	!
8c\L	16cccL 16aa\
.	16bbJJ 16gg\
8C/	16aaLL 16ff\
.	16gg 16ee\
8c\J	16ff 16dd\
.	16eeJJ 16cc\
=27	=27
16BB\LL	8ff\L
16G\	.
16D\	32f\LL
.	32g\
16G\JJ	32a\
.	32b\JJJ
*rep	*
16BB\LL	8dd\L
16G\	.
16D\	16dd\L
16G\JJ	16b\JJ
*Xrep	*
*rep	*
16BB\LL	8.ffL 8.dd\
16G\	.
16D\	.
16G\JJ	16ddJk 16b\
*Xrep	*
=28	=28
8r	8eeL 8cc\
8C\L	16eeL 16cc\
.	16ffJJ 16dd\
8E\	16aaLL 16ff\
.	16gg 16ee\
8C\J	16ff 16dd\
.	16eeJJ 16cc\
!LO:TX:a:t=P:problem=mixed beam	!
8G\L	8eeL 8cc\
8GG/J	8ddJ 8b\
!	!LO:TX:b:Bi:t=Trio Da Capo
==	==
*-	*-
!!title: @{OTL};
!!!RDF**kern: > = above
!!!RDF**kern: < = below
!!!EED: Wojciech Jakubiak-Danek
!!!EST: 2020-12-10
!!!URL-scan: http://bc.bdsandomierz.pl/dlibra/publication/1379/edition/1347/content
!!!ONB-nifc: Str. 2
!!!AIN: 1 empty 1 piano
!!!ENC: Berenika Jozajtis
!!!END: 2020-06-19
